source/_posts/graphth-02/th-2-8-case2.svg

<svg xmlns="http://www.w3.org/2000/svg" xmlns:xlink="http://www.w3.org/1999/xlink" width="346" height="312" viewBox="-0.5 -0.5 346 312"><ellipse cx="60" cy="145" fill="#FFF" stroke="#000" pointer-events="all" rx="60" ry="135"/><ellipse cx="284" cy="135" fill="#FFF" stroke="#000" pointer-events="all" rx="60" ry="135"/><circle cx="60" cy="50" r="10" fill="#FFF" stroke="#000" pointer-events="all"/><circle cx="60" cy="110" r="10" fill="#FFF" stroke="#000" pointer-events="all"/><circle cx="50" cy="150" r="10" fill="#FFF" stroke="#000" pointer-events="all"/><switch transform="translate(-.5 -.5)"><foreignObject width="100%" height="100%" pointer-events="none" requiredFeatures="http://www.w3.org/TR/SVG11/feature#Extensibility" style="overflow:visible;text-align:left"><div xmlns="http://www.w3.org/1999/xhtml" style="display:flex;align-items:unsafe center;justify-content:unsafe center;width:18px;height:1px;padding-top:150px;margin-left:41px"><div data-drawio-colors="color: rgb(0, 0, 0);" style="box-sizing:border-box;font-size:0;text-align:center"><div style="display:inline-block;font-size:12px;font-family:Helvetica;color:#000;line-height:1.2;pointer-events:all;white-space:normal;overflow-wrap:normal">v</div></div></div></foreignObject><text x="50" y="154" font-family="Helvetica" font-size="12" text-anchor="middle">v</text></switch><circle cx="60" cy="250" r="10" fill="#FFF" stroke="#000" pointer-events="all"/><circle cx="280" cy="40" r="10" fill="#FFF" stroke="#000" pointer-events="all"/><circle cx="280" cy="110" r="10" fill="#FFF" stroke="#000" pointer-events="all"/><circle cx="60" cy="200" r="10" fill="#FFF" stroke="#000" pointer-events="all"/><circle cx="284" cy="240" r="10" fill="#FFF" stroke="#000" pointer-events="all"/><circle cx="280" cy="170" r="10" fill="#FFF" stroke="#000" pointer-events="all"/><path fill="none" stroke="#000" stroke-miterlimit="10" d="m70 50 200-10M70 110l200-70M70 110h200M67.07 117.07l209.86 115.86M70 200l200-30" pointer-events="stroke"/><path fill="none" stroke="#a50040" stroke-miterlimit="10" d="m60 150 212.93-32.93" pointer-events="stroke"/><path fill="none" stroke="#000" stroke-miterlimit="10" d="M69.34 246.44 270 170" pointer-events="stroke"/><path fill="none" stroke="#a50040" stroke-miterlimit="10" d="m60 150 216.93 82.93" pointer-events="stroke"/><path fill="none" d="M30 280h60v30H30z" pointer-events="all"/><switch transform="translate(-.5 -.5)"><foreignObject width="100%" height="100%" pointer-events="none" requiredFeatures="http://www.w3.org/TR/SVG11/feature#Extensibility" style="overflow:visible;text-align:left"><div xmlns="http://www.w3.org/1999/xhtml" style="display:flex;align-items:unsafe center;justify-content:unsafe center;width:58px;height:1px;padding-top:295px;margin-left:31px"><div data-drawio-colors="color: rgb(0, 0, 0);" style="box-sizing:border-box;font-size:0;text-align:center"><div style="display:inline-block;font-size:12px;font-family:Helvetica;color:#000;line-height:1.2;pointer-events:all;white-space:normal;overflow-wrap:normal">C<sub>1</sub></div></div></div></foreignObject><text x="60" y="299" font-family="Helvetica" font-size="12" text-anchor="middle">C1</text></switch><path fill="none" d="M253 270h60v30h-60z" pointer-events="all"/><switch transform="translate(-.5 -.5)"><foreignObject width="100%" height="100%" pointer-events="none" requiredFeatures="http://www.w3.org/TR/SVG11/feature#Extensibility" style="overflow:visible;text-align:left"><div xmlns="http://www.w3.org/1999/xhtml" style="display:flex;align-items:unsafe center;justify-content:unsafe center;width:58px;height:1px;padding-top:285px;margin-left:254px"><div data-drawio-colors="color: rgb(0, 0, 0);" style="box-sizing:border-box;font-size:0;text-align:center"><div style="display:inline-block;font-size:12px;font-family:Helvetica;color:#000;line-height:1.2;pointer-events:all;white-space:normal;overflow-wrap:normal">C<sub>2</sub></div></div></div></foreignObject><text x="283" y="289" font-family="Helvetica" font-size="12" text-anchor="middle">C2</text></switch><path fill="none" stroke="#001dbc" stroke-miterlimit="10" d="M42.93 157.07Q20 170 25 206.5t27.93 36.43" pointer-events="stroke"/><path fill="none" stroke="#001dbc" stroke-miterlimit="10" d="M40 160q-10 20-5 26.5t17.93 6.43M40 150q-20-40-15-60t25-40" pointer-events="stroke"/><path fill="none" stroke="#a50040" stroke-miterlimit="10" d="m57.07 142.93 215.86-95.86" pointer-events="stroke"/><switch><g requiredFeatures="http://www.w3.org/TR/SVG11/feature#Extensibility"/><a xlink:href="https://www.diagrams.net/doc/faq/svg-export-text-problems" target="_blank" transform="translate(0 -5)"><text x="50%" y="100%" font-size="10" text-anchor="middle">Text is not SVG - cannot display</text></a></switch></svg>

<?xml version="1.0" encoding="UTF-8"?><svg xmlns="http://www.w3.org/2000/svg" xmlns:xlink="http://www.w3.org/1999/xlink" version="1.1" width="346px" height="312px" viewBox="-0.5 -0.5 346 312"><defs/><g><ellipse cx="60" cy="145" rx="60" ry="135" fill="rgb(255, 255, 255)" stroke="rgb(0, 0, 0)" pointer-events="all"/><ellipse cx="284" cy="135" rx="60" ry="135" fill="rgb(255, 255, 255)" stroke="rgb(0, 0, 0)" pointer-events="all"/><ellipse cx="60" cy="50" rx="10" ry="10" fill="rgb(255, 255, 255)" stroke="rgb(0, 0, 0)" pointer-events="all"/><ellipse cx="60" cy="110" rx="10" ry="10" fill="rgb(255, 255, 255)" stroke="rgb(0, 0, 0)" pointer-events="all"/><ellipse cx="50" cy="150" rx="10" ry="10" fill="rgb(255, 255, 255)" stroke="rgb(0, 0, 0)" pointer-events="all"/><g transform="translate(-0.5 -0.5)"><switch><foreignObject pointer-events="none" width="100%" height="100%" requiredFeatures="http://www.w3.org/TR/SVG11/feature#Extensibility" style="overflow: visible; text-align: left;"><div xmlns="http://www.w3.org/1999/xhtml" style="display: flex; align-items: unsafe center; justify-content: unsafe center; width: 18px; height: 1px; padding-top: 150px; margin-left: 41px;"><div data-drawio-colors="color: rgb(0, 0, 0); " style="box-sizing: border-box; font-size: 0px; text-align: center;"><div style="display: inline-block; font-size: 12px; font-family: Helvetica; color: rgb(0, 0, 0); line-height: 1.2; pointer-events: all; white-space: normal; overflow-wrap: normal;">v</div></div></div></foreignObject><text x="50" y="154" fill="rgb(0, 0, 0)" font-family="Helvetica" font-size="12px" text-anchor="middle">v</text></switch></g><ellipse cx="60" cy="250" rx="10" ry="10" fill="rgb(255, 255, 255)" stroke="rgb(0, 0, 0)" pointer-events="all"/><ellipse cx="280" cy="40" rx="10" ry="10" fill="rgb(255, 255, 255)" stroke="rgb(0, 0, 0)" pointer-events="all"/><ellipse cx="280" cy="110" rx="10" ry="10" fill="rgb(255, 255, 255)" stroke="rgb(0, 0, 0)" pointer-events="all"/><ellipse cx="60" cy="200" rx="10" ry="10" fill="rgb(255, 255, 255)" stroke="rgb(0, 0, 0)" pointer-events="all"/><ellipse cx="284" cy="240" rx="10" ry="10" fill="rgb(255, 255, 255)" stroke="rgb(0, 0, 0)" pointer-events="all"/><ellipse cx="280" cy="170" rx="10" ry="10" fill="rgb(255, 255, 255)" stroke="rgb(0, 0, 0)" pointer-events="all"/><path d="M 70 50 L 270 40" fill="none" stroke="rgb(0, 0, 0)" stroke-miterlimit="10" pointer-events="stroke"/><path d="M 70 110 L 270 40" fill="none" stroke="rgb(0, 0, 0)" stroke-miterlimit="10" pointer-events="stroke"/><path d="M 70 110 L 270 110" fill="none" stroke="rgb(0, 0, 0)" stroke-miterlimit="10" pointer-events="stroke"/><path d="M 67.07 117.07 L 276.93 232.93" fill="none" stroke="rgb(0, 0, 0)" stroke-miterlimit="10" pointer-events="stroke"/><path d="M 70 200 L 270 170" fill="none" stroke="rgb(0, 0, 0)" stroke-miterlimit="10" pointer-events="stroke"/><path d="M 60 150 L 272.93 117.07" fill="none" stroke="#a50040" stroke-miterlimit="10" pointer-events="stroke"/><path d="M 69.34 246.44 L 270 170" fill="none" stroke="rgb(0, 0, 0)" stroke-miterlimit="10" pointer-events="stroke"/><path d="M 60 150 L 276.93 232.93" fill="none" stroke="#a50040" stroke-miterlimit="10" pointer-events="stroke"/><rect x="30" y="280" width="60" height="30" fill="none" stroke="none" pointer-events="all"/><g transform="translate(-0.5 -0.5)"><switch><foreignObject pointer-events="none" width="100%" height="100%" requiredFeatures="http://www.w3.org/TR/SVG11/feature#Extensibility" style="overflow: visible; text-align: left;"><div xmlns="http://www.w3.org/1999/xhtml" style="display: flex; align-items: unsafe center; justify-content: unsafe center; width: 58px; height: 1px; padding-top: 295px; margin-left: 31px;"><div data-drawio-colors="color: rgb(0, 0, 0); " style="box-sizing: border-box; font-size: 0px; text-align: center;"><div style="display: inline-block; font-size: 12px; font-family: Helvetica; color: rgb(0, 0, 0); line-height: 1.2; pointer-events: all; white-space: normal; overflow-wrap: normal;">C<sub>1</sub></div></div></div></foreignObject><text x="60" y="299" fill="rgb(0, 0, 0)" font-family="Helvetica" font-size="12px" text-anchor="middle">C1</text></switch></g><rect x="253" y="270" width="60" height="30" fill="none" stroke="none" pointer-events="all"/><g transform="translate(-0.5 -0.5)"><switch><foreignObject pointer-events="none" width="100%" height="100%" requiredFeatures="http://www.w3.org/TR/SVG11/feature#Extensibility" style="overflow: visible; text-align: left;"><div xmlns="http://www.w3.org/1999/xhtml" style="display: flex; align-items: unsafe center; justify-content: unsafe center; width: 58px; height: 1px; padding-top: 285px; margin-left: 254px;"><div data-drawio-colors="color: rgb(0, 0, 0); " style="box-sizing: border-box; font-size: 0px; text-align: center;"><div style="display: inline-block; font-size: 12px; font-family: Helvetica; color: rgb(0, 0, 0); line-height: 1.2; pointer-events: all; white-space: normal; overflow-wrap: normal;">C<sub>2</sub></div></div></div></foreignObject><text x="283" y="289" fill="rgb(0, 0, 0)" font-family="Helvetica" font-size="12px" text-anchor="middle">C2</text></switch></g><path d="M 42.93 157.07 Q 20 170 25 206.5 Q 30 243 52.93 242.93" fill="none" stroke="#001dbc" stroke-miterlimit="10" pointer-events="stroke"/><path d="M 40 160 Q 30 180 35 186.5 Q 40 193 52.93 192.93" fill="none" stroke="#001dbc" stroke-miterlimit="10" pointer-events="stroke"/><path d="M 40 150 Q 20 110 25 90 Q 30 70 50 50" fill="none" stroke="#001dbc" stroke-miterlimit="10" pointer-events="stroke"/><path d="M 57.07 142.93 L 272.93 47.07" fill="none" stroke="#a50040" stroke-miterlimit="10" pointer-events="stroke"/></g><switch><g requiredFeatures="http://www.w3.org/TR/SVG11/feature#Extensibility"/><a transform="translate(0,-5)" xlink:href="https://www.diagrams.net/doc/faq/svg-export-text-problems" target="_blank"><text text-anchor="middle" font-size="10px" x="50%" y="100%">Text is not SVG - cannot display</text></a></switch></svg>
